!!!!SEGMENT: pl-cz--ii-15--008_studzilnski-kazimierz--mazur.krn
!!!cenid: 18xx:1158
!!!COM: Studziński, Kazimierz
!!!COM-rismID:
!!!CDT: ~1800-~1899
!!!CNT:
!!!OTL: Mazur
!!!PDT:
!!!AGN: Secular; Mazurka
!!!SMS-siglum: PL-CZ
!!!SMS-shelfmark: II-15
!!!SMS-shelfwork: 008 W
!!!SMS-variant:
!!!SMS-altvar:
!!!NIFC-rismSourceID: 300001529
!!!NIFC-islandoraID: pl-cz:32533
!!!URL-pdf-islandora: https://repozytorium.nifc.pl/islandora/object/pl-cz%3A32533/datastream/PDF/view
!!!URL-scan:
!!!ONB-nifc: UWAGA: części: 1. Mazur (Morawski), 2. Mazur (Szlagórski), 3. Walc 1, 4. Walc 2, 5. Walc 3, 6. Walc 4, 7. Walc 5, 8. Mazur (Studziński), 9. Kotylion (Szlagórski), 10. Gallop (Szlagórski), 11. Mazur (Smacierzyński). UWAGA: dalsza część partii Basso z tyłu okładki
!!!AIN: 2 clars 2 cor 2 empty 2 flt 2 violn
!!!key:
**kern	**kern	**kern	**kern	**kern	**kern	**kern	**kern	**kern	**kern
*part10	*part9	*part8	*part7	*part6	*part5	*part4	*part3	*part2	*part1
*staff10	*staff9	*staff8	*staff7	*staff6	*staff5	*staff4	*staff3	*staff2	*staff1
*Iempty	*Ivioln	*Ivioln	*Iempty	*Icor	*Icor	*Iclars	*Iclars	*Iflt	*Iflt
*I"Baſso	*I"Violino 2do	*I"Violino 1mo	*I"Clarino in G	*I"Corno 2do in D	*I"Corno 1mo in D	*I"Clarinetto 2do in C	*I"Clarinetto 1mo in C	*I"Flauto Secundo	*I"Flauto Primo
*I'b	*I'vl 2	*I'vl 1	*I'clno	*I'cor 2	*I'cor 1	*I'cl 2	*I'cl 1	*I'fl 2	*I'fl 1
*clefF4	*clefG2	*clefG2	*clefG2	*clefG2	*clefG2	*clefG2	*clefG2	*clefG2	*clefG2
*ITrd0c0	*	*	*ITrd3c5	*ITrd6c10	*ITrd6c10	*	*	*	*
*k[f#c#]	*k[f#c#]	*k[f#c#]	*k[f#c#]	*k[f#c#]	*k[f#c#]	*k[f#c#]	*k[f#c#]	*k[f#c#]	*k[f#c#]
*D:	*D:	*D:	*D:	*D:	*D:	*D:	*D:	*D:	*D:
*M3/8	*M3/8	*M3/8	*M3/8	*M3/8	*M3/8	*M3/8	*M3/8	*M3/8	*M3/8
*>[A,A,B,B,C,C]	*>[A,A,B,B,C,C]	*>[A,A,B,B,C,C]	*>[A,A,B,B,C,C]	*>[A,A,B,B,C,C]	*>[A,A,B,B,C,C]	*>[A,A,B,B,C,C]	*>[A,A,B,B,C,C]	*>[A,A,B,B,C,C]	*>[A,A,B,B,C,C]
=1	=1	=1	=1	=1	=1	=1	=1	=1	=1
*>A	*>A	*>A	*>A	*>A	*>A	*>A	*>A	*>A	*>A
*	*	*Xtuplet	*	*	*	*	*	*	*Xtuplet
!	!	!	!	!LO:TX:t=P:problem=zgodnie z RISM "Brak fl 2, cor 2"	!	!	!	!LO:TX:t=P:problem=zgodnie z RISM "Brak fl 2, cor 2"	!LO:TUP:a:problem=klamra łukowa
4D\	8f#/L 8a	24a/LL	4d/	4.ryy	4d\	4dd\	4ff#\	4.ryy	24aa\LL
.	.	24b/	.	.	.	.	.	.	24bb\
.	.	24a/JJ	.	.	.	.	.	.	24aa\JJ
.	8f#/ 8a	8f#/L	.	.	.	.	.	.	8ff#\L
8G\	8g/J 8b	8b/J	8G/	.	8d\	8b\	8gg\	.	8bb\J
=2	=2	=2	=2	=2	=2	=2	=2	=2	=2
4D\	8f#/L 8a	16.a\LL	8d/L	4.ryy	8d\L	8dd\L	8ff#\L	4.ryy	16.aa\LL
.	.	32cc#\K	.	.	.	.	.	.	32ccc#\K
!	!	!	!LO:TUP:b:problem=klamra łukowa	!	!	!	!	!	!
.	8f#/ 8a	16.dd\	24d/L	.	8d\	8dd\	8ff#\	.	16.ddd\
.	.	.	24d/	.	.	.	.	.	.
.	.	.	24d/J	.	.	.	.	.	.
.	.	32ee\K	.	.	.	.	.	.	32eee\K
8r	8f#/J 8a	16.ff#\	8d/J	.	8d\J	8dd\J	8ff#\J	.	16.fff#\
.	.	32gg\JJk	.	.	.	.	.	.	32ggg\JJk
=3	=3	=3	=3	=3	=3	=3	=3	=3	=3
4D\	8f#/L 8a	24aa\LL	4d/	4.ryy	4d\	4dd\	4ff#\	4.ryy	8aaa\
.	.	24bb\	.	.	.	.	.	.	.
.	.	24aa\JJ	.	.	.	.	.	.	.
.	8f#/ 8a	8ff#\L	.	.	.	.	.	.	8r
8G\	8g/J 8b	8bb\J	8G/	.	8d\	8b\	8gg\	.	8ggg\
=4	=4	=4	=4	=4	=4	=4	=4	=4	=4
8D\	8f#/ 8a	8aa\	8d/	4.ryy	8d\	8dd\	8ff#\	4.ryy	8fff#\
4D^\	4f#^>/ 4a	4ddd^<\	4d^>/	.	4d^\	4dd^\	4ff#^\	.	8ddd\
.	.	.	.	.	.	.	.	.	8r
=5	=5	=5	=5	=5	=5	=5	=5	=5	=5
*	*tremolo	*	*	*	*	*	*	*	*
!	!	!	!LO:TX:a:t=1	!	!	!LO:TX:a:t=4	!LO:TX:a:t=4	!	!
!	!	!	!	!	!	!LO:N:vis=00	!LO:N:vis=00	!	!
4A\	8g/ 8aL	24gg\LL	4.r	4.ryy	8e\L	1.r	1.r	4.ryy	24ggg\LL
.	.	24aa\	.	.	.	.	.	.	24aaa\
.	.	24gg\JJ	.	.	.	.	.	.	24ggg\JJ
.	8g/ 8a	16.ee\LL	.	.	8e\	.	.	.	16.eee\LL
.	.	32ff#\K	.	.	.	.	.	.	32fff#\K
8r	8g/ 8aJ	16.gg\	.	.	8e\J	.	.	.	16.ggg\
.	.	32gg#X\JJk	.	.	.	.	.	.	32ggg#X\JJk
!	!	!	!	!	!	!	!	!	!LO:LB:g=original
=6	=6	=6	=6	=6	=6	=6	=6	=6	=6
4D\ 4d	8f#/ 8aL	16.aa\LL	8d/L	4.ryy	8d\L	.	.	4.ryy	8aaa\
.	.	32bb\K	.	.	.	.	.	.	.
!	!	!	!LO:TUP:b:problem=klamra łukowa	!	!	!	!	!	!
.	8f#/ 8a	16.ccc#\	24d/L	.	8d\	.	.	.	8r
.	.	.	24d/	.	.	.	.	.	.
.	.	.	24d/J	.	.	.	.	.	.
.	.	32ddd\K	.	.	.	.	.	.	.
8r	8f#/ 8aJ	16.ff#\	8d/J	.	8d\J	.	.	.	16fff#\LL
.	.	.	.	.	.	.	.	.	16ggg\JJ
.	.	32gg\JJk	.	.	.	.	.	.	.
!	!	!LO:LB:g=original	!	!	!	!	!	!	!
=7	=7	=7	=7	=7	=7	=7	=7	=7	=7
!	!	!	!LO:TX:a:t=1	!	!	!	!	!	!
8A\	8g/ 8aL	16.bb\LL	4.r	4.ryy	8e\L	.	.	4.ryy	16.ggg#X\LL
.	.	32aa\K	.	.	.	.	.	.	32aaa\K
4A\	8g/ 8a	16.gg\	.	.	8e\	.	.	.	16.gggn\
.	.	32ee\K	.	.	.	.	.	.	32eee\K
.	8g/ 8aJ	16.cc#\	.	.	8e\J	.	.	.	16.ccc#\
.	.	32a\JJk	.	.	.	.	.	.	32aa\JJk
*	*Xtremolo	*	*	*	*	*	*	*	*
!	!LO:LB:g=original	!	!	!	!	!	!	!	!
=8	=8	=8	=8	=8	=8	=8	=8	=8	=8
8D\	8f#/ 8a	8dd\	8d/	4.ryy	8d\	.	.	4.ryy	8dd\
4D\	4f#/ 4a	4ddd\	4d/	.	4d\	.	.	.	4ddd\
!LO:LB:g=original	!	!	!LO:LB:g=original	!	!LO:LB:g=original	!	!	!	!
=9:|!|:	=9:|!|:	=9:|!|:	=9:|!|:	=9:|!|:	=9:|!|:	=9:|!|:	=9:|!|:	=9:|!|:	=9:|!|:
*>B	*>B	*>B	*>B	*>B	*>B	*>B	*>B	*>B	*>B
*	*	*^	*	*	*	*	*	*	*
!	!	!LO:TX:t=P:problem=pierwsza warstwa mniejszą czcionką	!	!LO:TX:a:t=5	!	!LO:TX:a:t=4	!	!	!	!
!	!	!LO:N:cue	!	!LO:N:vis=00r	!	!LO:NLvis=00r	!	!	!	!
4A\	8c#/L 8e	8ee/L	8e\L 8a	1.r	4.ryy	1.r	4cc#\	8ee\L	4.ryy	8ee\L
!	!	!LO:N:cue	!	!	!	!	!	!	!	!
.	.	16qqff#\LL	.	.	.	.	.	16qqff#/LL	.	16qqff#/LL
!	!	!LO:N:cue	!	!	!	!	!	!	!	!
.	.	16qqee\JJ	.	.	.	.	.	16qqee/JJ	.	16qqee/JJ
!	!	!LO:N:cue	!	!	!	!	!	!	!	!
.	8c#/ 8e	16dd#X/L	8e\ 8a	.	.	.	.	16dd#X\L	.	16dd#X\L
!	!	!LO:N:cue	!	!	!	!	!	!	!	!
.	.	16ee/	.	.	.	.	.	16ee\	.	16ee\
!	!	!LO:N:cue	!	!	!	!	!	!	!	!
8r	8c#/J 8e	16ff#/	8e\J 8a	.	.	.	8cc#\	16ff#\	.	16ff#\
!	!	!LO:N:cue	!	!	!	!	!	!	!	!
.	.	16gg#X/JJ	.	.	.	.	.	16gg#X\JJ	.	16gg#X\JJ
=10	=10	=10	=10	=10	=10	=10	=10	=10	=10	=10
*	*rep	*	*	*	*	*	*	*	*	*
!	!	!LO:N:cue	!	!	!	!	!	!	!	!
4A\	8c#/L 8e	16.aa/LL	8e\L 8a	.	4.ryy	.	8cc#\L	16.aa\LL	4.ryy	16.aa\LL
!	!	!LO:N:cue	!	!	!	!	!	!	!	!
.	.	32bb/K	.	.	.	.	.	32bb\K	.	32bb\K
!	!	!LO:N:cue	!	!	!	!	!	!	!	!
.	8c#/ 8e	16.ccc#/	8e\ 8a	.	.	.	8ee\	16.ccc#\	.	16.ccc#\
!	!	!LO:N:cue	!	!	!	!	!	!	!	!
.	.	32gg#X/K	.	.	.	.	.	32gg#X\K	.	32gg#X\K
!	!	!LO:N:cue	!	!	!	!	!	!	!	!
8r	8c#/J 8e	16.aa/	8e\J 8a	.	.	.	8cc#\J	16.aa\	.	16.aa\
!	!	!LO:N:cue	!	!	!	!	!	!	!	!
.	.	32ff#/JJk	.	.	.	.	.	32ff#\JJk	.	32ff#\JJk
!	!	!	!	!	!	!	!	!LO:LB:g=original	!	!
*	*Xrep	*	*	*	*	*	*	*	*	*
=11	=11	=11	=11	=11	=11	=11	=11	=11	=11	=11
*	*tremolo	*	*	*	*	*	*	*	*	*
!	!	!LO:N:cue	!	!	!	!	!	!	!	!
4E\	8d/ 8eL	8ee/L	8e\L 8b	.	4.ryy	.	8dd\	8ee\L	4.ryy	8ee\L
!	!	!LO:N:cue	!	!	!	!	!	!	!	!
.	.	16qqff#\LL	.	.	.	.	.	16qqff#/LL	.	16qqff#/LL
!	!	!LO:N:cue	!	!	!	!	!	!	!	!
.	.	16qqee\JJ	.	.	.	.	.	16qqee/JJ	.	16qqee/JJ
!	!	!LO:N:cue	!	!	!	!	!	!	!	!
.	8d/ 8e	16dd#X/L	8e\ 8b	.	.	.	8r	16dd#X\L	.	16dd#X\L
!	!	!LO:N:cue	!	!	!	!	!	!	!	!
.	.	16ee/	.	.	.	.	.	16ee\	.	16ee\
!	!	!LO:N:cue	!	!	!	!	!	!	!	!
8E\	8d/ 8eJ	16gg#X/	8e\J 8b	.	.	.	16b\LL	16gg#X\	.	16gg#X\
!	!	!LO:N:cue	!	!	!	!	!	!	!	!
.	.	16bb/JJ	.	.	.	.	16dd\JJ	16bb\JJ	.	16bb\JJ
!	!	!	!	!	!	!	!LO:LB:g=original	!	!	!LO:LB:g=original
*	*Xtremolo	*	*	*	*	*	*	*	*	*
=12	=12	=12	=12	=12	=12	=12	=12	=12	=12	=12
!	!	!LO:N:cue	!	!	!	!	!	!	!	!
8A\	8c#/ 8e	8aa/	8e\ 8a	.	4.ryy	.	8cc#\	8aa\	4.ryy	8aa\
!	!	!LO:N:cue	!	!	!	!	!	!	!	!
4A^<\	4c#^>/ 4e	4aa/	4e\ 4a	.	.	.	4cc#\	4a/	.	4aa^<\
*	*	*v	*v	*	*	*	*	*	*	*
=13	=13	=13	=13	=13	=13	=13	=13	=13	=13
*	*tremolo	*	*	*	*	*	*	*	*
!	!	!	!	!	!	!LO:TX:a:t=4	!LO:TX:a:t=4	!	!LO:TX:a:t=4
!	!	!	!LO:N:vis=1	!	!	!LO:N:vis=00	!LO:N:vis=00	!	!LO:N:vis=00
8A\L	8e/ 8aL	16.aa\LL	4.r	4.ryy	8e\L	1.r	1.r	4.ryy	1.r
.	.	32gg#X\K	.	.	.	.	.	.	.
8A\	8e/ 8a	16.ggn\	.	.	8e\	.	.	.	.
.	.	32bb\K	.	.	.	.	.	.	.
8A\J	8e/ 8aJ	16.a\	.	.	8e\J	.	.	.	.
.	.	32cc#\JJk	.	.	.	.	.	.	.
!	!	!LO:LB:g=original	!	!	!	!	!	!	!
=14	=14	=14	=14	=14	=14	=14	=14	=14	=14
.	.	8qee/	.	.	.	.	.	.	.
4D\ 4d	8f#/ 8aL	16.dd\LL	8d/L	4.ryy	8d\L	.	.	4.ryy	.
.	.	32cc#X\K	.	.	.	.	.	.	.
!	!	!	!LO:TUP:b:problem=klamra łukowa	!	!	!	!	!	!
.	8f#/ 8a	16.dd\	24d/L	.	8d\	.	.	.	.
.	.	.	24d/	.	.	.	.	.	.
.	.	.	24d/J	.	.	.	.	.	.
.	.	32ee\K	.	.	.	.	.	.	.
8r	8f#/ 8aJ	16.ff#\	8d/J	.	8d\J	.	.	.	.
.	.	32gg\JJk	.	.	.	.	.	.	.
=15	=15	=15	=15	=15	=15	=15	=15	=15	=15
!	!	!	!LO:TX:a:t=1	!	!	!	!	!	!
4A\	8g/ 8aL	8aa\L	4.r	4.ryy	8e\L	.	.	4.ryy	.
.	.	16qqbb/L	.	.	.	.	.	.	.
.	.	16qqaa/J	.	.	.	.	.	.	.
.	8g/ 8a	16gg#X\L	.	.	8e\	.	.	.	.
.	.	16aa\	.	.	.	.	.	.	.
8A\	8g/ 8aJ	16bb\	.	.	8e\J	.	.	.	.
.	.	16ccc#\JJ	.	.	.	.	.	.	.
*	*Xtremolo	*	*	*	*	*	*	*	*
=16	=16	=16	=16	=16	=16	=16	=16	=16	=16
8D\ 8d	8f#/ 8a	8ddd\	8d/	4.ryy	8d\	.	.	4.ryy	.
4D\ 4d	4f#/ 4a	4dd\	4d/	.	4d\	.	.	.	.
!	!LO:LB:g=original	!	!	!	!	!	!	!	!
=17:|!|:	=17:|!|:	=17:|!|:	=17:|!|:	=17:|!|:	=17:|!|:	=17:|!|:	=17:|!|:	=17:|!|:	=17:|!|:
*>C	*>C	*>C	*>C	*>C	*>C	*>C	*>C	*>C	*>C
*ok[f#cn]	*ok[f#cn]	*ok[f#cn]	*	*	*	*	*ok[f#cn]	*	*
*k[f#]	*k[f#]	*k[f#]	*k[f#]	*k[f#]	*k[f#]	*k[f#]	*k[f#]	*k[f#]	*k[f#]
*	*	*^	*	*	*	*	*	*	*
*	*tremolo	*	*tremolo	*	*	*	*	*	*	*
!	!	!LO:TX:t=P:problem=pierwsza warstwa mniejszą czcionką	!	!	!LO:N:vis=0	!LO:TX:a:t=8	!LO:TX:a:t=2	!LO:TX:a:t=2	!	!
!	!	!LO:N:cue	!	!LO:TX:a:t=Solo	!	!LO:N:vis=00r	!	!LO:N:vis=0	!	!
4G\	8B/ 8gL	16.gg/LL	8d\L 8b	16.G/LL	4.ryy	1.r	2.r	2.r	4.ryy	16.gg\LL
!	!	!LO:N:cue	!	!	!	!	!	!	!	!
.	.	32bb/JJk	.	32B/JJK	.	.	.	.	.	32bb\JJk
!	!	!LO:N:cue	!	!	!	!	!	!	!	!
.	8B/ 8g	8dd/L	8d\ 8b	8D/L	.	.	.	.	.	8dd\L
!	!	!LO:N:cue	!	!	!	!	!	!	!	!
8r	8B/ 8gJ	16gg/L	8d\J 4b	16G/L	.	.	.	.	.	16gg\L
!	!	!LO:N:cue	!	!	!	!	!	!	!	!
.	.	16aa/JJ	.	16A/JJ	.	.	.	.	.	16aa\JJ
=18	=18	=18	=18	=18	=18	=18	=18	=18	=18	=18
*	*rep	*	*	*	*	*	*	*	*	*
!	!	!LO:N:cue	!	!	!	!	!	!	!	!
4G\	8B/L 8g	16.bb/LL	8d\L 8b	16.B/LL	4.ryy	.	.	.	4.ryy	16.bb\LL
!	!	!LO:N:cue	!	!	!	!	!	!	!	!
.	.	32ccc/JJk	.	32c/JJK	.	.	.	.	.	32ccc\JJk
!	!	!LO:N:cue	!	!	!	!	!	!	!	!
.	8B/ 8g	8eee/L	8d\ 8b	8e/L	.	.	.	.	.	8eee\L
!	!	!LO:N:cue	!	!	!	!	!	!	!	!
8r	8B/J 8g	8ddd/J	8d\J 8b	8d/J	.	.	.	.	.	8ddd\J
*	*Xrep	*	*	*	*	*	*	*	*	*
!LO:LB:g=original	!	!	!	!	!	!	!	!	!	!
=19	=19	=19	=19	=19	=19	=19	=19	=19	=19	=19
!	!	!	!	!LO:TX:a:t=2	!	!	!	!	!	!LO:TX:a:t=2
!	!	!LO:N:cue	!	!LO:N:vis=0r	!	!	!	!	!	!LO:N:vis=0
4D\	8A/ 8f#L	8dd/L	8d\L 8b	2.r	4.ryy	.	8cc\	8dd\L	4.ryy	2.r
!	!	!LO:N:cue	!	!	!	!	!	!	!	!
.	.	16qqee/LL	.	.	.	.	.	16qqee/LL	.	.
!	!	!LO:N:cue	!	!	!	!	!	!	!	!
.	.	16qqdd/JJ	.	.	.	.	.	16qqdd/JJ	.	.
!	!	!LO:N:cue	!	!	!	!	!	!	!	!
.	8A/ 8f#	16cc#X/L	8d\ 8b	.	.	.	8r	16cc#X\L	.	.
!	!	!LO:N:cue	!	!	!	!	!	!	!	!
.	.	16dd/	.	.	.	.	.	16dd\	.	.
!	!	!LO:N:cue	!	!	!	!	!	!	!	!
8r	8A/ 8f#J	16ff#/	8d\J 8b	.	.	.	8cc\	16ff#\	.	.
!	!	!LO:N:cue	!	!	!	!	!	!	!	!
.	.	16aa/JJ	.	.	.	.	.	16aa\JJ	.	.
*	*Xtremolo	*	*Xtremolo	*	*	*	*	*	*	*
=20	=20	=20	=20	=20	=20	=20	=20	=20	=20	=20
!	!	!LO:N:cue	!	!	!	!	!	!	!	!
8G\L	8G/L 8g	16.bb/LL	8d\L 8b	.	4.ryy	.	8b\L	16.bb\LL	4.ryy	.
!	!	!LO:N:cue	!	!	!	!	!	!	!	!
.	.	32ff#/K	.	.	.	.	.	32ff#\K	.	.
!	!	!LO:N:cue	!	!	!	!	!	!	!	!
8G\	8c/ 8g	16.gg/	8e\ 8cc	.	.	.	16.ee\L	16.gg\	.	.
!	!	!LO:N:cue	!	!	!	!	!	!	!	!
.	.	32ee/JK	.	.	.	.	32cc\JK	32ee\JK	.	.
!	!	!LO:N:cue	!	!	!	!	!	!	!	!
8G\J	8G/J 8g	8dd/J	8d\J 8b	.	.	.	8b\J	8dd\J	.	.
!	!	!LO:LB:g=original	!LO:LB:g=original	!	!	!	!	!	!	!
=21	=21	=21	=21	=21	=21	=21	=21	=21	=21	=21
*	*tremolo	*	*tremolo	*	*	*	*	*	*	*
!	!	!	!	!	!	!	!LO:TX:a:t=2	!LO:TX:a:t=2	!	!
!	!	!LO:N:cue	!	!	!	!LO:N:vis=00r	!LO:N:vis=0	!LO:N:vis=0	!	!
4G\	8B/ 8gL	16.gg/LL	8d\L 8b	16.G/LL	4.ryy	1.r	2.r	2.r	4.ryy	16gg\LL
.	.	.	.	.	.	.	.	.	.	16bb\JJ
!	!	!LO:N:cue	!	!	!	!	!	!	!	!
.	.	32bb/JJk	.	32B/JJK	.	.	.	.	.	.
!	!	!LO:N:cue	!	!	!	!	!	!	!	!
.	8B/ 8g	8dd/L	8d\ 8b	8D/L	.	.	.	.	.	8dd\L
!	!	!LO:N:cue	!	!	!	!	!	!	!	!
8r	8B/ 8gJ	16.gg/L	8d\J 8b	16G/L	.	.	.	.	.	16.gg\L
.	.	.	.	16A/JJ	.	.	.	.	.	.
!	!	!LO:N:cue	!	!	!	!	!	!	!	!
.	.	32aa/JJk	.	.	.	.	.	.	.	32aa\JJk
=22	=22	=22	=22	=22	=22	=22	=22	=22	=22	=22
*	*rep	*	*	*	*	*	*	*	*	*
!	!	!LO:N:cue	!	!	!	!	!	!	!	!
4G\	8B/L 8g	16.bb/LL	8d\L 8b	16.B/LL	4.ryy	.	.	.	4.ryy	16.bb\LL
!	!	!LO:N:cue	!	!	!	!	!	!	!	!
.	.	32ccc/JJk	.	32c/JJK	.	.	.	.	.	32ccc\JJk
!	!	!LO:N:cue	!	!	!	!	!	!	!	!
.	8B/ 8g	8eee/L	8d\ 8b	8e/L	.	.	.	.	.	8eee\L
!	!	!LO:N:cue	!	!	!	!	!	!	!	!
8r	8B/J 8g	8ddd/J	8d\J 8b	8d/J	.	.	.	.	.	8ddd\J
*	*Xrep	*	*	*	*	*	*	*	*	*
=23	=23	=23	=23	=23	=23	=23	=23	=23	=23	=23
!	!	!	!	!LO:TX:a:t=2	!	!	!	!	!	!LO:TX:a:t=2
!	!	!LO:N:cue	!	!LO:N:vis=0r	!	!	!	!	!	!LO:N:vis=0
4D\	8A/ 8f#L	8dd/L	8d\L 8b	2.r	4.ryy	.	8a\L	8dd\L	4.ryy	2.r
!	!	!LO:N:cue	!	!	!	!	!	!	!	!
.	8A/ 8f#	16ddd/L	8d\ 8b	.	.	.	8dd\J	16ddd\L	.	.
!	!	!LO:N:cue	!	!	!	!	!	!	!	!
.	.	16ccc/	.	.	.	.	.	16ccc\	.	.
!	!	!LO:N:cue	!	!	!	!	!	!	!	!
8D\	8A/ 8f#J	16ee/	8d\J 8b	.	.	.	16cc\LL	16ee\	.	.
!	!	!LO:N:cue	!	!	!	!	!	!	!	!
.	.	16ff#/JJ	.	.	.	.	16a\JJ	16ff#\JJ	.	.
*	*Xtremolo	*	*Xtremolo	*	*	*	*	*	*	*
=24	=24	=24	=24	=24	=24	=24	=24	=24	=24	=24
!	!	!LO:N:cue	!	!	!	!	!	!	!	!
8G\	8B/ 8g	8gg/	8d\ 8b	.	4.ryy	.	8b\	8gg\	4.ryy	.
!	!	!LO:N:cue	!	!	!	!	!	!	!	!
4G^<\	4B/ 4g	4gg/	4d\ 4b	.	.	.	4b\	4gg\	.	.
*	*	*v	*v	*	*	*	*	*	*	*
=:|!	=:|!	=:|!	=:|!	=:|!	=:|!	=:|!	=:|!;	=:|!	=:|!
*-	*-	*-	*-	*-	*-	*-	*-	*-	*-
!!!system-decoration: [(s1,s2,s3,s4)][(s5,s6,s7)][(s8,s9,s10)]
!!!RDF**kern: < = below
!!!RDF**kern: > = above
!!!ENC: Andrzej Gręziak
!!!END: 2020-11-06
!!!ENC: Marta Chmielewska
!!!END: 2021-11-02
